X:1
T:Despedida de Coimbra
T:Despedida de Coimbra
T:Barcarola
T:Galáxia Sonora Coimbrã 2020 (A. Caetano)
C:desconhecido
Z:Galáxia Sonora Coimbrã 2020 (A. Caetano)
%%score 1 2
L:1/8
M:3/4
K:G
V:1 treble-8 nm="Voz"
V:2 bass nm="Piano"
V:1
 z6[Q:1/4=150] | z6 ||S z6 | z2 e2 g2 | b4 e2 | c'4 a2 | (ba) g2 z2 | z2 ^d2 e2 | f4 a2 | g4 f2 | %10
w: |||Já não|ou- ço|de Co-|im- * bra|os a-|le- gres,|do- ces|
 f2 e2 z2 | z2 e2 g2 | b4 e2 | c'4 a2 | (ba) g2 z2 | z2 b2 c'2 | b4 f2 | g4 f2 | f2 e2 z2 || %19
w: can- tos|é si-|lên- cio|tu- do a-|go- o- ra,|dei- xo|ri- o,|ve- jo|pran- tos.|
"^Estribilho\n" z2 e'2 d'2 | (c'b) a2 z2 | z2 d'2 c'2 | (ba) g2 z2 | z2 a2 g2 | b4 f2 | g4 f2 | %26
w: Dei- xa,|dei- * xa,|oh bar-|quei- * ro,|ir o|bar- co|len- ta|
 f2 e2 z2 | z2 e'2 d'2 | (c'b) a2 z2 | z2 d'2 c'2 | (ba) g2 z2 | z2 a2 g2 | b4 f2 | g4 f2 | %34
w: men- te|Dei- xa,|pá- * ra,|que a sau-|da- * de|ir mais|lon- ge|não con-|
 f2 e2 z2 | z2 b2 c'2 | (g2 a2) b2 | f2 g3 f | f2 e2 z2 | z2"^rall. molto" b2 !fermata!c'2 | %40
w: sen- te,|ir mais|lon- * ge|não con- on-|sen- te|ir mais|
 (!fermata!g2 !fermata!a2) !fermata!b2 | %41
w: lon- * ge|
 !fermata!B2{!fermata!c!fermata!B!fermata!^A!fermata!B} !fermata!g3 !fermata!f | %42
w: não con- *|
 !fermata!f2 e2 z2!D.S.! || z6 |] %44
w: sen- te.||
V:2
 !arpeggio![E,G,B,E]4 z2 | !arpeggio![B,,^D,F,B,]4 z2 || !arpeggio![E,G,B,]4 !arpeggio![E,G,B,]2 | %3
 !arpeggio![E,G,B,]4 !arpeggio![E,G,B,]2 | !arpeggio![E,G,B,]4 !arpeggio![E,G,B,]2 | %5
 !arpeggio![E,A,C]4 !arpeggio![E,A,C]2 | !arpeggio![E,G,B,]4 !arpeggio![E,G,B,]2 | %7
 !arpeggio![E,G,B,]4 !arpeggio![E,G,B,]2 | !arpeggio![B,,^D,F,B,]4 !arpeggio![B,,D,F,B,]2 | %9
 !arpeggio![B,,^D,F,B,]4 !arpeggio![B,,D,F,B,]2 | !arpeggio![E,G,B,]4 !arpeggio![E,G,B,]2 | %11
 !arpeggio![E,G,B,]4 !arpeggio![E,G,B,]2 | !arpeggio![E,G,B,]4 !arpeggio![E,G,B,]2 | %13
 !arpeggio![E,A,C]4 !arpeggio![E,A,C]2 | !arpeggio![E,G,B,]4 !arpeggio![E,G,B,]2 | %15
 !arpeggio![E,G,B,]4 !arpeggio![E,G,B,]2 | !arpeggio![B,,^D,F,B,]4 !arpeggio![B,,D,F,B,]2 | %17
 !arpeggio![B,,^D,F,B,]4 !arpeggio![B,,D,F,B,]2 | !arpeggio![E,G,B,]4 !arpeggio![E,G,B,]2 || %19
 !arpeggio![E,G,B,]4 !arpeggio![E,G,B,]2 | !arpeggio![E,A,C]4 !arpeggio![E,A,C]2 | %21
 !arpeggio![E,A,C]4 !arpeggio![E,A,C]2 | !arpeggio![E,G,B,]4 !arpeggio![E,G,B,]2 | %23
 !arpeggio![E,G,B,]4 !arpeggio![E,G,B,]2 | !arpeggio![B,,^D,F,B,]4 !arpeggio![B,,D,F,B,]2 | %25
 !arpeggio![B,,^D,F,B,]4 !arpeggio![B,,D,F,B,]2 | !arpeggio![E,G,B,]4 !arpeggio![E,G,B,]2 | %27
 !arpeggio![E,G,B,]4 !arpeggio![E,G,B,]2 | !arpeggio![E,A,C]4 !arpeggio![E,A,C]2 | %29
 !arpeggio![E,A,C]4 !arpeggio![E,A,C]2 | !arpeggio![E,G,B,]4 !arpeggio![E,G,B,]2 | %31
 !arpeggio![E,G,B,]4 !arpeggio![E,G,B,]2 | !arpeggio![B,,^D,F,B,]4 !arpeggio![B,,D,F,B,]2 | %33
 !arpeggio![B,,^D,F,B,]4 !arpeggio![B,,D,F,B,]2 | !arpeggio![E,G,B,]4 !arpeggio![E,G,B,]2 | %35
 !arpeggio![E,G,B,]4 !arpeggio![E,G,B,]2 | !arpeggio![A,,C,F,]4 !arpeggio![A,,C,F,]2 | %37
 !arpeggio![B,,^D,A,]4 !arpeggio![B,,D,A,]2 | !arpeggio![B,,E,G,]4 !arpeggio![B,,E,G,]2 | %39
 !arpeggio![B,,E,G,]4 !arpeggio![B,,E,G,]2 | !arpeggio![A,,C,F,]4 !arpeggio![C,,A,,C,F,]2 | %41
 !arpeggio![B,,^D,F,A,]4 z2 | !arpeggio![E,G,]4 !arpeggio!!fermata![E,G,B,]2 || %43
 !arpeggio!!fermata![E,G,B,]6 |] %44

